X:1
T:James Gibb editions
T:Vacate et videte - Draconio
%%score [ 1 2 3 4 ]
L:1/8
Q:1/4=90
M:4/4
K:D
V:1 treble-8 nm="Tenor I" snm="T I"
V:2 treble-8 nm="Tenor II" snm="T II"
V:3 bass nm="Bass I" snm="B I"
V:4 bass nm="Bass II" snm="B II"
V:1
"^Vacate et videte""^Giovanni Andrea Draconio\n(1550?-99)" e4 e2 e2 | f2 e2 d4 | c2 d3 d d2 | %3
w: Va- ca- te|et vi- de-|te quo- ni- am|
[M:4/4][K:treble-8] d4 d2 c2 | d8 | d4 z2 g2- | gf e2 ^ddee | f2 z f gf e2 | e2 f2 e4 | %9
w: e- go sum|De-|us ex\-|* al- ta- bor in gen- ti-|bus et ex- al- ta-|bor in ter-|
 !fermata!e8 |] %10
w: ra.|
V:2
 A4 A2 A2 | A2 A2 A4 | A2 A3 A A2 |[M:4/4][K:treble-8] B4 A2 G2 | A8 | B4 z2 d2- | dd B2 BBBc | %7
w: Va- ca- te|et vi- de-|te quo- ni- am|e- go sum|De-|us ex\-|* al- ta- bor in gen- ti-|
 d2 z d dd B2 | c2 d2 B4 | !fermata!c8 |] %10
w: bus et ex- al- ta-|bor in ter-|ra.|
V:3
 C,4 C,2 C,2 | D,2 E,2 F,4 | E,2 F,3 F, F,2 |[M:4/4] G,4 F,2 G,2 | (G,2 F,E, F,4) | G,4 z2 B,2- | %6
w: Va- ca- te|et vi- de-|te quo- ni- am|e- go sum|De\- * * *|us ex\-|
 B,A, G,2 F,F,G,G, | A,2 z A, B,A, ^G,2 | A,2 F, (A,2 ^G,/F,/ G,2) | !fermata!A,8 |] %10
w: * al- ta- bor in gen- ti-|bus et ex- al- ta-|bor in ter\- * * *|ra.|
V:4
 A,,4 A,,2 A,,2 | D,2 C,2 D,4 | A,,2 D,3 D, D,2 |[M:4/4] G,,4 D,2 E,2 | D,8 | G,,4 z2 G,2- | %6
w: Va- ca- te|et vi- de-|te quo- ni- am|e- go sum|De-|us ex\-|
 G,D, E,2 B,,B,,E,E, | D,2 z D, G,D, E,2 | A,,2 D,2 E,4 | !fermata!A,,8 |] %10
w: * al- ta- bor in gen- ti-|bus et ex- al- ta-|bor in ter-|ra.|

